build/svg/cmd/lc_animationobjects.svg

<?xml version="1.0" encoding="UTF-8" standalone="no"?>
<svg
   xmlns:dc="http://purl.org/dc/elements/1.1/"
   xmlns:cc="http://creativecommons.org/ns#"
   xmlns:rdf="http://www.w3.org/1999/02/22-rdf-syntax-ns#"
   xmlns:svg="http://www.w3.org/2000/svg"
   xmlns="http://www.w3.org/2000/svg"
   xmlns:sodipodi="http://sodipodi.sourceforge.net/DTD/sodipodi-0.dtd"
   xmlns:inkscape="http://www.inkscape.org/namespaces/inkscape"
   viewBox="0 0 24 24"
   version="1.1"
   id="svg4"
   sodipodi:docname="lc_animationobjects.svg"
   inkscape:export-filename="/home/jupiter007/Libreoffice yaru theme fullcolor/build/cmd/lc_animationobjects.png"
   inkscape:export-xdpi="95"
   inkscape:export-ydpi="95"
   inkscape:version="0.92.5 (2060ec1f9f, 2020-04-08)">
  <metadata
     id="metadata10">
    <rdf:RDF>
      <cc:Work
         rdf:about="">
        <dc:format>image/svg+xml</dc:format>
        <dc:type
           rdf:resource="http://purl.org/dc/dcmitype/StillImage" />
      </cc:Work>
    </rdf:RDF>
  </metadata>
  <defs
     id="defs8" />
  <sodipodi:namedview
     pagecolor="#ffffff"
     bordercolor="#666666"
     borderopacity="1"
     objecttolerance="10"
     gridtolerance="10"
     guidetolerance="10"
     inkscape:pageopacity="0"
     inkscape:pageshadow="2"
     inkscape:window-width="1920"
     inkscape:window-height="1011"
     id="namedview6"
     showgrid="true"
     inkscape:zoom="32"
     inkscape:cx="2.5303602"
     inkscape:cy="11.840821"
     inkscape:window-x="1920"
     inkscape:window-y="32"
     inkscape:window-maximized="1"
     inkscape:current-layer="svg4">
    <inkscape:grid
       type="xygrid"
       id="grid843" />
  </sodipodi:namedview>
  <path
     id="path28"
     d="m 6.50004,2.500062 h 11 v 18.000001 h -11 z"
     inkscape:connector-curvature="0"
     style="fill:#b549b5;fill-opacity:1;stroke-width:0.90241677" />
  <path
     id="path30"
     d="m 3.45004,1.998342 c -0.248517,2.5e-5 -0.449973,0.2025665 -0.45,0.45242 v 18.0968 c 2.5e-5,0.249854 0.201483,0.452393 0.45,0.45242 h 17.1 c 0.248517,-2.5e-5 0.449973,-0.202566 0.45,-0.45242 V 2.450762 C 21.000015,2.2009085 20.692204,1.9983691 20.443687,1.998342 H 5.993287 Z M 4.00003,3 H 6.00001 V 4.000029 H 4.00003 Z M 7,3 h 9.9999 L 16.9936,20.095142 H 6.9937 Z m 10.9998,0 h 1.99998 v 1.000029 h -1.9989 z M 4.0003,5.999997 H 6.00028 V 7.000026 H 4.0003 Z m 14.0004,0 h 1.99998 v 1.000029 h -1.9998 z M 4.0003,8.999994 H 6.00028 V 9.999842 H 4.0003 Z m 14.0004,0 h 1.99998 v 0.999848 h -1.9998 z M 4.0003,12.000443 h 1.99998 v 1.00003 H 4.0003 Z m 14.0004,0 h 1.99998 v 1.00003 h -1.9998 z M 4.0003,14.999988 h 1.99998 l -2.4e-4,1.000074 H 4.00006 Z m 14.0004,0 h 1.99998 l -6.4e-4,1.000074 h -1.9998 z M 4.0003,18.000437 h 1.99998 l -2.4e-4,0.999625 H 4.00006 Z m 14.0004,0 h 1.99998 l -6.4e-4,0.999625 h -1.99998 z"
     inkscape:connector-curvature="0"
     style="opacity:0.7;stroke-width:0.90241677" />
  <path
     inkscape:connector-curvature="0"
     d="M 7.4950401,12.451959 H 16.50496"
     style="display:block;opacity:0.7;fill:none;stroke:#000000;stroke-width:0.99501193;stroke-linecap:square;stroke-linejoin:round"
     id="path32" />
  <rect
     style="opacity:1;fill:#ffffff;fill-opacity:1;fill-rule:evenodd;stroke:none;stroke-width:2;stroke-linecap:butt;stroke-linejoin:round;stroke-miterlimit:4;stroke-dasharray:none;stroke-opacity:1"
     id="rect829"
     width="2"
     height="1"
     x="4"
     y="3" />
  <rect
     y="6"
     x="4"
     height="1"
     width="2"
     id="rect831"
     style="opacity:1;fill:#ffffff;fill-opacity:1;fill-rule:evenodd;stroke:none;stroke-width:2;stroke-linecap:butt;stroke-linejoin:round;stroke-miterlimit:4;stroke-dasharray:none;stroke-opacity:1" />
  <rect
     y="9"
     x="4"
     height="1"
     width="2"
     id="rect833"
     style="opacity:1;fill:#ffffff;fill-opacity:1;fill-rule:evenodd;stroke:none;stroke-width:2;stroke-linecap:butt;stroke-linejoin:round;stroke-miterlimit:4;stroke-dasharray:none;stroke-opacity:1" />
  <rect
     style="opacity:1;fill:#ffffff;fill-opacity:1;fill-rule:evenodd;stroke:none;stroke-width:2;stroke-linecap:butt;stroke-linejoin:round;stroke-miterlimit:4;stroke-dasharray:none;stroke-opacity:1"
     id="rect835"
     width="2"
     height="1"
     x="4"
     y="12" />
  <rect
     style="opacity:1;fill:#ffffff;fill-opacity:1;fill-rule:evenodd;stroke:none;stroke-width:2;stroke-linecap:butt;stroke-linejoin:round;stroke-miterlimit:4;stroke-dasharray:none;stroke-opacity:1"
     id="rect837"
     width="2"
     height="1"
     x="4"
     y="15" />
  <rect
     y="18"
     x="4"
     height="1"
     width="2"
     id="rect839"
     style="opacity:1;fill:#ffffff;fill-opacity:1;fill-rule:evenodd;stroke:none;stroke-width:2;stroke-linecap:butt;stroke-linejoin:round;stroke-miterlimit:4;stroke-dasharray:none;stroke-opacity:1" />
  <rect
     y="3"
     x="18"
     height="1"
     width="2"
     id="rect841"
     style="opacity:1;fill:#ffffff;fill-opacity:1;fill-rule:evenodd;stroke:none;stroke-width:2;stroke-linecap:butt;stroke-linejoin:round;stroke-miterlimit:4;stroke-dasharray:none;stroke-opacity:1" />
  <rect
     style="opacity:1;fill:#ffffff;fill-opacity:1;fill-rule:evenodd;stroke:none;stroke-width:2;stroke-linecap:butt;stroke-linejoin:round;stroke-miterlimit:4;stroke-dasharray:none;stroke-opacity:1"
     id="rect843"
     width="2"
     height="1"
     x="18"
     y="6" />
  <rect
     style="opacity:1;fill:#ffffff;fill-opacity:1;fill-rule:evenodd;stroke:none;stroke-width:2;stroke-linecap:butt;stroke-linejoin:round;stroke-miterlimit:4;stroke-dasharray:none;stroke-opacity:1"
     id="rect845"
     width="2"
     height="1"
     x="18"
     y="9" />
  <rect
     y="12"
     x="18"
     height="1"
     width="2"
     id="rect847"
     style="opacity:1;fill:#ffffff;fill-opacity:1;fill-rule:evenodd;stroke:none;stroke-width:2;stroke-linecap:butt;stroke-linejoin:round;stroke-miterlimit:4;stroke-dasharray:none;stroke-opacity:1" />
  <rect
     y="15"
     x="18"
     height="1"
     width="2"
     id="rect849"
     style="opacity:1;fill:#ffffff;fill-opacity:1;fill-rule:evenodd;stroke:none;stroke-width:2;stroke-linecap:butt;stroke-linejoin:round;stroke-miterlimit:4;stroke-dasharray:none;stroke-opacity:1" />
  <rect
     style="opacity:1;fill:#ffffff;fill-opacity:1;fill-rule:evenodd;stroke:none;stroke-width:2;stroke-linecap:butt;stroke-linejoin:round;stroke-miterlimit:4;stroke-dasharray:none;stroke-opacity:1"
     id="rect851"
     width="2"
     height="1"
     x="18"
     y="18" />
</svg>

<svg xmlns="http://www.w3.org/2000/svg" viewBox="0 0 24 24"><path d="M6.5 2.5h11v18h-11z" fill="#b549b5"/><path d="M3.45 1.998a.451.451 0 00-.45.453v18.097c0 .25.202.452.45.452h17.1c.249 0 .45-.203.45-.452V2.45c0-.25-.308-.453-.556-.453H5.994zM4 3h2v1H4zm3 0h10l-.006 17.095h-10zm11 0h2v1h-2zM4 6h2v1H4zm14 0h2v1h-2zM4 9h2v1H4zm14 0h2v1h-2zM4 12h2v1H4zm14 0h2v1h-2zM4 15h2v1H4zm14 0h2v1h-2zM4 18h2v1H4zm14 0h2v1h-2z" opacity=".7"/><path d="M7.495 12.452h9.01" display="block" opacity=".7" fill="none" stroke="#000" stroke-width=".995" stroke-linecap="square" stroke-linejoin="round"/><path fill="#fff" fill-rule="evenodd" d="M4 3h2v1H4zM4 6h2v1H4zM4 9h2v1H4zM4 12h2v1H4zM4 15h2v1H4zM4 18h2v1H4zM18 3h2v1h-2zM18 6h2v1h-2zM18 9h2v1h-2zM18 12h2v1h-2zM18 15h2v1h-2zM18 18h2v1h-2z"/></svg>
